apps/extension/src/@talisman/theme/icons/pin.svg

<svg width="11" height="16" viewBox="0 0 11 16" fill="none" xmlns="http://www.w3.org/2000/svg">
<path fill-rule="evenodd" clip-rule="evenodd" d="M8.70529 1.7455H9.35438V0H1.49965V1.7455H2.29401V7.8205L0.336351 9.59981H0.335938V9.60019V11.3453V11.3457L0.33642 11.3453H4.81168V16.0004H6.49005V11.3453H10.6632L10.6634 11.3455V11.3453H10.6635V9.59981H10.6632L8.70529 7.82026V1.7455ZM7.02692 1.7455H3.97238V8.5157L2.57932 9.59981H8.42028L7.02692 8.51546V1.7455Z" fill="#A5A5A5"/>
</svg>

<svg viewBox="0 0 11 16" fill="none" xmlns="http://www.w3.org/2000/svg">
    <path fill-rule="evenodd" clip-rule="evenodd" d="M8.705 1.746h.65V0H1.5v1.746h.794V7.82L.336 9.6v1.745h4.476V16H6.49v-4.655h4.173V9.6L8.705 7.82V1.745zm-1.678 0H3.972v6.77L2.58 9.6H8.42L7.027 8.515v-6.77z" fill="#A5A5A5"/>
</svg>
